dist/img/icons/error-circle.svg

<svg width="14" height="15" viewBox="0 0 14 15" fill="none" xmlns="http://www.w3.org/2000/svg">
<path d="M7 1.59375C10.2435 1.59375 12.9062 4.2208 12.9062 7.5C12.9062 10.7619 10.2646 13.4062 7 13.4062C3.73942 13.4062 1.09375 10.7659 1.09375 7.5C1.09375 4.24054 3.73521 1.59375 7 1.59375ZM7 0.71875C3.25508 0.71875 0.21875 3.75618 0.21875 7.5C0.21875 11.246 3.25508 14.2812 7 14.2812C10.7449 14.2812 13.7812 11.246 13.7812 7.5C13.7812 3.75618 10.7449 0.71875 7 0.71875Z" fill="#EC3B3B"/>
<path d="M6.48423 8.42919H7.51568L7.77354 4.30566H6.22637L6.48423 8.42919ZM6.99996 10.694C7.46577 10.694 7.79849 10.324 7.79849 9.87288C7.79849 9.4127 7.46577 9.06983 6.99996 9.06983C6.53414 9.06983 6.20142 9.4127 6.20142 9.87288C6.20142 10.324 6.53414 10.694 6.99996 10.694Z" fill="#EC3B3B"/>
</svg>

<svg width="14" height="15" fill="none" xmlns="http://www.w3.org/2000/svg"><path d="M7 1.594a5.907 5.907 0 11-.001 11.814A5.907 5.907 0 017 1.594zm0-.875a6.782 6.782 0 10.002 13.564A6.782 6.782 0 007 .72z" fill="#EC3B3B"/><path d="M6.484 8.43h1.032l.258-4.124H6.226l.258 4.123zM7 10.693c.466 0 .798-.37.798-.821 0-.46-.332-.803-.798-.803s-.799.343-.799.803c0 .451.333.821.799.821z" fill="#EC3B3B"/></svg>
